X: 20592
T: John O'Neill's
R: reel
M: 4/4
K: Dmajor
A|BcBA FAAc|BE~E2 FEFA|BcBA FAAB|ABde fdd:|
e|f2fd e2ec|fgfd edBd|fgfe dedB|ABde fdde|
f2fd e2ed|fgfd edBd|fa~a2 bgaf|ABde fdd||

